account-network-off.svg

<svg fill="currentColor" viewBox="0 0 24 24"><path d="M13.03 9.83 8.67 5.47A3.49 3.49 0 0 1 12 3c1.93 0 3.5 1.57 3.5 3.5 0 1.57-1.04 2.89-2.47 3.33M19 15.5c0-1.24-1.3-2.33-3.25-2.95L19 15.8zm3 6.5h-.43l-.73.73-.73-.73H15c0 .55-.45 1-1 1h-4c-.55 0-1-.45-1-1H2v-2h7c0-.55.45-1 1-1h1v-2H5v-1.5c0-1.62 2.22-3 5.23-3.38L1.11 3l1.28-1.27L22 21.34v.01l.11.11-.11.11zm-3.89-2-3-3H13v2h1c.55 0 1 .45 1 1z"/></svg>

<svg  viewBox="0 0 24 24" fill="currentColor"><path  d="M13.03 9.83L8.67 5.47C9.11 4.04 10.43 3 12 3C13.93 3 15.5 4.57 15.5 6.5C15.5 8.07 14.46 9.39 13.03 9.83M19 15.5C19 14.26 17.7 13.17 15.75 12.55L19 15.8V15.5M22 22H21.57L20.84 22.73L20.11 22H15C15 22.55 14.55 23 14 23H10C9.45 23 9 22.55 9 22H2V20H9C9 19.45 9.45 19 10 19H11V17H5V15.5C5 13.88 7.22 12.5 10.23 12.12L1.11 3L2.39 1.73L22 21.34V21.35L22.11 21.46L22 21.57V22M18.11 20L15.11 17H13V19H14C14.55 19 15 19.45 15 20H18.11Z"/></svg>
